X: 21090
T: Kalabakan
R: reel
M: 4/4
K: Dmajor
|:d2Ad BABd|AABd feef|d2Ad BABd|AAfe d2 df:|
|:a2faafa2|AABd feef|a2faafa2|AAfe d2 df:|
BdAd BABd|fAAA feef|BdAd BABd|AAfe d2 d2|
BdAd BABd|fAAA feef|BdAd BABd|AAfe d3 a||
f3 a e3f|d2ed BdBA|BdAd BABd|feef e3 a|
f3 a e3f|d2ed BdBA|BdAd BABd|AAfe d4||

